X:6
T:Tripping Up the Stairs
Z:Madison
M:6/8
R:jig
K:D
A|FAA GBB|Add fed|cBc ABc|dfe d2A|
FAA GBB|Add fed|cBc ABc|dfe d2:|
c|dBB fBB|fgf fed|cAA eAA|efe edc|
dBB fBB|fgf fed|cBc ABc|dfe d2:|


